-----BEGIN PGP SIGNATURE-----

iQIzBAABCAAdFiEEYAEc3Oov9S2XWv3ubTDzLNXoD4AFAmoR33kACgkQbTDzLNXo
D4Dt8w//TM92rBOELpLcKotcBb49v4t6vi9WmLnZAsqC2dnRRapd7XgzohVhh8ia
y/5uJcYsxDQEq658+7iOitANeIxujhYaP2GGDE6u/mEUQaNDxiKFUVVHXiMDVo5I
L4rnzH6h+5QeKJ4YqELLT3NcLlaA/vcVMUKvFthpGYdl/VdKjRHAq2gQt6TWu0dW
PnYqxYJzqNy3fGIHMIbqFkGN3Giijdj1f/eMMRB3xkPYDqhETI5t5+B24GsjrTT/
yRSHmL5qcMLBdcRerjVyqupqRCq5SRLEEL/pNqmgwUQVEypiZQ7DRkUse3N6mmPb
87wm/uCdA6PY2vXdt+T8zRHXNDMDtnLGcJ2ZHJSzYhGoBczi4eSXDzkKTnLOnjjx
UyqqQxiNTOe1+d8UouJ2ANIWqDt+YRgjBqFte1M1Bg3GsnVRSULjvRBXACzTl2pn
Wn8f759MYQa4Lt2fYLNeEK+nuaqnAJrfxiCKrgKVQisUxyCyh50IlvzJ2SXPKkKe
U+A23lQrwt39j0lK/GJhmBmKuF8HbX0jLtbYQzE4Cta2KgelbA+unXpMqD8h+/ES
pbOV/I0Tc1fSgtaRDx4WXqY4PcIs9RfyZRQUxMrX+NYdPNmOnt+YEe7xmAIe8faS
Qx/oKlddv7fkMkoE23uQOgpZBe7TgKE7IodTbgVb0SW6AVfF1+Q=
=RR7w
-----END PGP SIGNATURE-----
